X: 0
T: The Geud Man of Ballangigh
O: Playford 1709
B: Playford 1709 #30 ("Squirrel")
R: jig
N: Tune: Hunt the Squirrel
M: 6/8
L: 1/8
K:
% - - - - - - - - - - - - - - - - - - - - - - - - -
P: Hunt The Squirrel   (G)
Z: 1997 by John Chambers <jc:trillian.mit.edu>
N: The pickups are optional.
K: G
BA \
|:"G"Gd-d d2e | d3 B3 | GAB "C"A2G | "G"GAB "D7"A2G \
| "G"Gd-d d2e | "Em"d3 B3 | "C(Am)"GAB "D7"A2G | "G"G3 z3 :|
GAB \
|:"C"c2d edc | "Bm"c2d edc | "Am"c2d e2f | "Em"g3 gfe \
| "G"dB2 dB2 | "Bm"dB2 d3 | "Am"GAB "D7"A2G | "G"G3 z3 :|
% - - - - - - - - - - - - - - - - - - - - - - - - -
P: Hunt The Squirrel   [A]
Z: 1997 by John Chambers <jc:trillian.mit.edu>
K: A
cB \
|:"A"Ae-e e2f | e3 c3 | ABc "D"B2A | "A"ABc "E7"B2A \
| "A"Ae-e e2f | "F#m"e3 c3 | "D(Bm)"ABc "E7"B2A | "A"A3 z3 :|
ABc \
|:"D"d2e fed | "C#m"d2e fed | "Bm"d2e f2g | "F#m"a3 agf \
| "A"ec2 ec2 | "F#m"ec2 e3 | "Bm"ABc "E7"B2A | "A"A3 z3 :|

%%sep 1 1 500


